X:101
T:Tuti
C:Anonimous, 16th century
M:3/4
L:1/8
K:G
V:1 name="Soprano" sname="S." clef=treble
%%MIDI program 1 1
G4 G2| G4 F2| A4 A2| B4 z2|: \
w: Ver- bum | ca- ro | fac- tum | est |
B3 A GF| E2 D2 EF| G4 F2| G6!fine!:| 
w: Por - que *| to - dos * | hos sal-|veis
V:2 name="Contralto" sname="C." clef=treble
%%MIDI program 1 1
D4 D2| E4 D2| E4 F2| G4 z2|: \
w: Ver- bum | ca- ro | fac- tum | est |
G4 G2| G4 G2| E2 D4| D6:| 
w: Por- que | to- dos  | hos sal-|veis
V:3 name="Tenor" sname="T." clef=treble-8
%%MIDI program 1 1
G3 A B2| c4 A2| c4 c2| d4 z2|: \
w: Ver - bum | ca- ro | fac- tum | est |
d2 B4| c2 B4| c2 A4| G6:| 
w: Por- que | to- dos  | hos sal-|veis
V:4 name="Baixo" sname="B." clef=bass
%%MIDI program 1 1
G,4 G,2| C,4 D,2| A,4 A,2| G,4 z2|: \
w: Ver- bum | ca- ro | fac- tum | est |
G,3 F, E,D,| C,2 G,2 E,2| C,2 D,4| G,,6:| 
w: Por - que | to - dos  | hos sal-|veis
